**kern	**kern	**dynam
*part1	*part1	*part1
*staff2	*staff1	*
*I"Piano	*	*
*clefF4	*clefG2	*
*k[b-e-a-]	*k[b-e-a-]	*
=1	=1	=1
4.r	8bb-'L	.
.	8bb-'	[
.	8bb-'J	.
*clefG2	*	*
=	=	=
8ff'L	8aa-X'L 8bb-	f
!	!LO:TX:b:i:t=dim.	!
8ee-X'	8gg' 8bb-	.
8dd'J	8ff'J 8bb-	.
=	=	=
8cc'L 8ee-	8aa-'L 8bb-	.
8b-' 8dd	8gg' 8bb-	.
8a-'J 8cc	8ff'J 8bb-	.
=	=	=
8g'L 8b-	8ee-'L 8bb-	.
8f' 8a-	8dd' 8bb-	.
8e-'J 8g	8cc'J 8bb-	.
=	=	=
8d'L 8f	8b-'L 8bb-	.
8c' 8e- 8a-	8bb-'	.
8A-'J 8d 8f	8bb-'J	.
*clefF4	*	*
=	=	=
8EE-'L	8b-'L 8ee- 8gg 8bb-	pp
8BB-'	8b-' 8ee- 8gg 8bb-	.
8E-'J	8b-'J 8ee- 8gg 8bb-	.
=	=	=
8G'L	8b-'L 8ee- 8gg 8bb-	.
8B-'	8b-' 8ee- 8gg 8bb-	.
8e-'J	8b-'J 8ee- 8gg 8bb-	.
=	=	=
8g'L	8b-'L 8ee- 8gg 8bb-	.
8e-'	8b-' 8ee- 8gg 8bb-	.
8B-'J	8b-'J 8ee- 8gg 8bb-	.
=	=	=
*-	*-	*-
!!!system-decoration: {(s1,s2)}
